X: 1
T: MISS JOHNSON'S -- HORNPIPE
B: Ryan's Mammoth Collection of Fiddle Tunes
R: hornpipe
M: 2/4
L: 1/16
Z: Contributed 20000425164034 by John Chambers jchambers:casc.com
K: G
uD2 \
| GABG "4"AGED | GABc "4"e2d2 | gfgd "4"edBG | ABAG E2D2 |
| GABG    AGED | GABc "4"e2d2 | gfgd "4"edBG | A2G2G2 :|
|: ud2 \
| dgfg "0"edBG | dgfg "0"e2d2 | gfgd "4"edBG | ABAG E2D2 |
| GABG    AGED | GABc "4"e2d2 | gfgd "4"edBG | A2G2G2 :|
